icons/chevron-double-topleft.svg

<svg width="24" height="25" viewBox="0 0 24 25" fill="none" xmlns="http://www.w3.org/2000/svg">
<path fill-rule="evenodd" clip-rule="evenodd" d="M18.6632 13.2513C18.6632 13.6655 18.3274 14.0013 17.9132 14.0013L13.5013 14.0013L13.5013 18.4132C13.5013 18.8274 13.1655 19.1632 12.7513 19.1632C12.3371 19.1632 12.0013 18.8274 12.0013 18.4132L12.0013 13.8877C12.0013 13.5132 12.1271 13.133 12.4066 12.8536C12.6774 12.5827 13.0538 12.45 13.4466 12.5013L17.9132 12.5013C18.3274 12.5013 18.6632 12.8371 18.6632 13.2513ZM13.5036 13.8611C13.5036 13.8611 13.5035 13.8617 13.5031 13.8629L13.5036 13.8611Z" fill="black"/>
<path fill-rule="evenodd" clip-rule="evenodd" d="M14.4205 9.00862C14.4205 9.42283 14.0847 9.75862 13.6705 9.75862L9.25862 9.75862L9.25862 14.1705C9.25862 14.5847 8.92283 14.9205 8.50862 14.9205C8.0944 14.9205 7.75862 14.5847 7.75862 14.1705L7.75862 9.64502C7.75862 9.27053 7.88445 8.89033 8.1639 8.61088C8.43476 8.34002 8.81109 8.20736 9.20394 8.25862L13.6705 8.25862C14.0847 8.25862 14.4205 8.59441 14.4205 9.00862ZM9.26093 9.61845C9.26096 9.61846 9.26084 9.61907 9.26047 9.62022L9.26093 9.61845Z" fill="black"/>
</svg>

<svg xmlns="http://www.w3.org/2000/svg" fill="none" viewBox="0 0 24 25">
  <path fill="#000" fill-rule="evenodd" d="M18.663 13.251a.75.75 0 0 1-.75.75h-4.412v4.412a.75.75 0 0 1-1.5 0v-4.525c0-.375.126-.755.406-1.034.27-.271.647-.404 1.04-.353h4.466a.75.75 0 0 1 .75.75Zm-5.16.61v.002-.002Zm.917-4.852a.75.75 0 0 1-.75.75H9.26v4.412a.75.75 0 0 1-1.5 0V9.645c0-.374.125-.755.405-1.034.27-.271.647-.404 1.04-.352h4.466a.75.75 0 0 1 .75.75Zm-5.16.61v.001-.002Z" clip-rule="evenodd"/>
</svg>
